X: 13043
T: Find The Path
R: reel
M: 4/4
K: Adorian
"Am"eAAB c2BA|"C" GEEF G3A|"Am"B/c/d ef gedB|"C" GABG "Em"E2 FG|
"D" ADDE F2 DF|"D" ADDE F2 GA|"Am"B/c/d ef gedB|"C" GABG "Am"A2 Bd:|
|:"Am" aeef Pg2fe|"G" dBGB d2 eg|"Am" aeef e/f/g fe|"D" fdd^c d2eg|
"Am" aeef Pg2fe|"G" dBGB d2 eg|"Am" aeef gedB|"C" GABG "Am"A2 eg:|

